X:1
T:Telemann - Viola Concerto 2nd Movement 
T:Mehrzad Zamini
T:Allegro
%%score 1 { ( 2 3 4 ) | ( 5 6 7 ) }
L:1/8
Q:1/4=101
M:4/4
K:G
V:1 alto nm="Viola" snm="Vla."
V:2 treble nm="Piano" snm="Pno."
V:3 treble 
V:4 treble 
V:5 treble 
V:6 treble 
V:7 treble 
V:1
 z8 | z8 | z8 | z8 | z8 | z8 | G,B,DG- GF/E/ D/E/F/G/ | A/G/F/E/ DC- CB,/A,/ B,2 | z8 | z8 | z8 | %11
 z8 | G,B,DG- GF/E/ D/E/F/G/ | A/G/F/E/ DC- CB,/A,/ B,/C/D/E/ | %14
 =F/G,/G,/G,/ F/G,/F/G,/ E/D/C/D/ E/F/D/E/ | =F/G,/G,/G,/ F/G,/F/G,/ E/D/C/D/ E/F/E/F/ | %16
 GA/B/ c=F- FB/c/ dG,- | G,d/c/ B/A/G/=F/ EcG,B | [C,G,Ec]2 z2 z4 | z4 z C/B,/ C/D/E/F/ | %20
 G/A,/A,/A,/ G/A,/G/A,/ F/E/D/E/ F/G/E/F/ | G/A,/A,/A,/ G/A,/G/A,/ F/E/D/E/ F/G/F/G/ | %22
 AB/^c/ dG- Gc/d/ eA,- | A,e/d/ ^c/B/A/G/ FdEc | d2 z2 z4 | z8 | z8 | z8 | z8 | z8 | %30
 DFAd- dc/B/ A/B/c/A/ | BA/G/ F/G/A/F/ GE z G, | C/G,/E,/G,/ C/E/G/E/ C/G,/E,/G,/ C/E/G/E/ | %33
 ^C/A,/E,/A,/ C/E/G/E/ C/A,/E,/A,/ C/E/G/E/ | F/D/A,/D/ F/A/d/A/ F/D/A,/D/ F/A/d/A/ | %35
 F/^D/B,/D/ F/B/^d/B/ F/D/B,/D/ F/B/d/B/ | G/A/B/A/ G/F/E/D/ CAB,G | A,FG,E A,FB,^D | %38
 ED/C/ B,/A,/G,/F,/ G,EF,^D | EGBe z4 | A,CEA z4 | DFAd z4 | G,B,DG- GF/E/ D/E/F/G/ | %43
 A/G/F/E/ Dc- cB/A/ B/c/d/B/ | e/G/G/G/ e/G/e/G/ e/F/F/F/ F/F/F/F/ | %45
 ^d/F/F/F/ d/F/d/F/ d/E/E/E/ E/E/E/E/ | c/E/E/E/ c/E/c/E/ c/D/D/D/ D/D/D/D/ | BDdD ADcD | %48
 BDdD ADcD | B=F/E/ Fd- dE/D/ Ec- | c B2 A- AC/B,/ CA, | B,GA,F [G,G]2 z2 | %52
 z4 z/ D,/E,/F,/ G,/A,/B,/C/ | D/G,/A,/B,/ C/D/E/F/ G/D/E/F/ G/A/B/c/ | %54
 d/E/E/E/ d/E/d/E/ c/B/A/B/ c/d/B/c/ | d/E/E/E/ d/E/d/E/ c2 z2 | z4 z/ A,/B,/C/ D/E/F/^G/ | %57
 A/E/F/^G/ A/G/A/B/ c/D/D/D/ c/D/c/D/ | B/A/G/A/ B/c/A/B/ c/D/D/D/ c/D/c/D/ | %59
 B/d/B/G/ D/G/B/d/ B/d/B/G/ D/G/B/d/ | A/d/A/F/ D/F/A/d/ A/d/A/F/ D/F/A/d/ | %61
 c/e/c/A/ E/A/c/e/ c/e/c/A/ E/A/c/e/ | B/e/B/G/ E/G/B/e/ B/e/B/G/ E/G/B/e/ | %63
 d/g/d/B/ G/B/d/g/ d/g/d/B/ G/B/d/g/ | fD z A BDdD | ADcD BDdD | ADcD B=F/E/ Fd- | %67
 dE/D/ Ec- c B2 A- | AC/B,/ CA, B,GA,F | GBdg- gf/e/ d/e/f/g/ | a/g/f/e/ dc- cB/A/ Bd | %71
 b/d/d/d/ b/d/b/d/ b/c/c/c/ c/c/c/c/ | a/c/c/c/ a/c/a/c/ a/B/B/B/ B/B/B/B/ | %73
 g/B/B/B/ g/B/g/B/ g/A/A/A/ A/A/A/A/ | %74
 f/D/D/D/ Df g/a/b/g/ f/g/a/f/[Q:1/4=99][Q:1/4=98][Q:1/4=96][Q:1/4=95][Q:1/4=93][Q:1/4=92][Q:1/4=90][Q:1/4=89][Q:1/4=87][Q:1/4=86][Q:1/4=84][Q:1/4=83][Q:1/4=81][Q:1/4=80][Q:1/4=78][Q:1/4=77] | %75
[Q:1/4=75] [G,Bg]2 z2 z4 |] %76
V:2
 z2 z g- g z z2 | .a2 z c- c z z2 | b/d/d/d/ b/d/b/d/ b/c/c/c/ c/c/c/c/ | %3
 a/c/c/c/ a/c/a/c/ a/B/B/B/ B/B/B/B/ | g/B/B/B/ g/B/g/B/ g/A/A/A/ A/A/A/A/ | %5
 f/.D/D/D/ D[Adf] .[Bg].[db].[Af].[ca] | [Bdg]2[K:bass] G,2 A,2 z .E, | A2 DF [DG]2 z [Bd] | %8
 b/d/d/d/ b/d/b/d/ b/c/c/c/ c/c/c/c/ | a/c/c/c/ a/c/a/c/ a/B/B/B/ B/B/B/B/ | %10
 g/B/B/B/ g/B/g/B/ g/A/A/A/ A/A/A/A/ | f/.D/D/D/ D[Adf] .[Bg].[db].[Af].[ca] | %12
 [Bdg]2 [G,DG]2 [DA]2 z [CGc] | [A,DA]2 z F .[DG]2 z G | [D=F]4 z4 | [D=F]4 z4 | %16
 [CG]2 z C B,2 z C | z2 z G- G2 z2 | [Ec]e[cg]c'- [dc']b/a/ g/a/b/c'/ | d'/c'/b/a/ .g2 z e/d/ e2 | %20
 E2 z2 z4 | E2 z2 z4 | [A,DA]2 z [DG] [^CG]2 z D | E2 ^CE FDEC | DF[DA]d- [Fd]^c/B/ A/B/c/d/ | %25
 e/d/^c/B/ A^C A,2 z [FA] | f/A/A/A/ f/A/.f fd/^c/ [GB][GA] | e/G/G/G/ e/G/.e e^c/B/ [FA][FG] | %28
 d/F/F/F/ d/F/.d dB/A/ [EG][EF] | .^c[A,E]/[A,D]/ [A,^C][EAc] .[DAd][Af]/d/ c/d/.[Ge] | %30
 [Fd]2 z F [DG]2 [DA]2 | [DB]2 cd [GB]2 g[Ge] | [CGc]2 z2 [CGc]2 z2 | [^CEA]2 z2 [CEA]2 z2 | %34
 [DFA]2 z2 [DFA]2 z2 | [B,FB]2 z2 [B,FB]2 z2 | [B,EG]2 z B, C2 D2 | E4 z4 | %38
 E2[K:bass] .G,,C [G,B,E]2 [B,^D]2 | z2 z[K:treble] A z2 .B2 | [EAc]2 z [da] .[Ba]2 .e.g | %41
 [Adf]2 z d- [E-d]E[DF]-[DFc] | [DGB]2[K:bass] .B,,.G,, A,2 z .E, | [A,A]2 DF D2 z [B,B] | %44
 E2 G2 FGAF | ^D2 F2 EFGE | C2 E2 DEFD | g/B/B/B/ g/B/g/B/ f/A/A/A/ f/A/f/A/ | %48
 g/B/B/B/ g/B/g/B/ f/A/A/A/ f/A/.f | [Bg]2 D2 E2 C2 | D2 E2[K:bass] A,2 z A, | %51
 B,2 z .D,[K:treble] B/c/d/B/ A/B/c/A/ | B/c/d/B/ A/B/c/A/ [DGB]2 z2 | [G,B,D]2 z2 [B,DG]2 z2 | %54
 B2 ^G2 [EAc]2 z2 | [Ed]2- [E^Gd]2 c/d/e/c/ B/c/d/B/ | c/d/e/c/ B/c/d/B/ [EAc]2 z2 | z4 A2 z2 | %58
 z4 A2 z2 | B2 z2 z4 | FFFF FFFF | .E.E.E.E .E.E.E.E | GGGG GGGG | %63
 [DG][DG][DG][DG] [DG][DG][DG][DG] | A/D/D/D/ DF G/B,/B,/B,/ G/B,/G/B,/ | %65
 F/A,/A,/A,/ F/A,/F/A,/ G/B,/B,/B,/ G/B,/G/B,/ | z4 G4- | G2 z2 z4 | A,2 z2 [B,G]2 z [A,F] | %69
 [B,G]B[Gd]g- [Ag]f/g/ [Aa]g | z4[K:bass] z2 z[K:treble] G- | G z z2 z4[K:bass][K:treble] | %72
 D[K:bass].A,/.G,/ .F,[K:treble]G B,[K:bass].F,/.E,/ .D,[K:treble]C | %73
 .[B,GB]2 z [B,EB] .[CEA]2 z [B,E] | .[A,D]2 z [DFd] .[DGB].d .[DFA]c/A/ | [DGB]2 z2 z4 |] %76
V:3
 GBdB z f/e/ d/e/f/g/ | d/-[d-g]/[d-f]/[de]/ dF D2 z [Bd] | x8 | x8 | x8 | x8 | x2[K:bass] x6 | %7
 x8 | x8 | x8 | x8 | x8 | x8 | x8 | G,4- [G,CE]2 z2 | G,4- [G,CE]2 z2 | x8 | D2 .B,2 E2 [B,D]2 | %18
 z2 z e z4 | z2 z =f- f z z2 | [A,G]2- [A,^CG]2 [A,DF]2 z2 | [A,G]2- [A,^CG]2 [A,DF]2 [B,DF]2 | %22
 x8 | x8 | z2 z F z4 | z2 z G- G z z2 | x8 | x8 | x8 | x8 | x8 | x8 | x8 | x8 | x8 | x8 | x8 | %37
 z2 B,2 C2 ^D2 | x2[K:bass] x6 | [E,G,B,E]2 z[K:treble] e- [=F-e]F[E^G]-[EGd] | z4 z2 [A^c]2 | %41
 z2 z G z2 .A2 | x2[K:bass] x6 | x8 | x8 | x8 | x8 | x8 | x8 | x8 | x4[K:bass] x4 | %51
 z2 A,2[K:treble] z4 | x8 | x8 | [Ed]4 z4 | B2 z2 z4 | x8 | [CEA]2 z2 [Dc]2- [DFc]2 | %58
 [DGB]2 z2 [Dc]2- [DFc]2 | z .D.D.D .D.D.D.D | x8 | x8 | x8 | x8 | x8 | x8 | %66
 F/A,/A,/A,/ F/A,/.F B,2 D2 | E2 C2 D2 E2 | x8 | z2 z B z4 | [Af][K:bass].D,A.D, D2 z2[K:treble] | %71
 .G,G/F/ GD C[K:bass].A,/.G,/ .F,[K:treble]G | x[K:bass] x2[K:treble] x2[K:bass] x2[K:treble] x | %73
 x8 | x8 | x8 |] %76
V:4
 z4 A2 z2 | x8 | x8 | x8 | x8 | x8 | x2[K:bass] x6 | x8 | x8 | x8 | x8 | x8 | x8 | x8 | x8 | x8 | %16
 x8 | x8 | x8 | z4 c2 z2 | x8 | x8 | x8 | x8 | x8 | x8 | x8 | x8 | x8 | x8 | x8 | x8 | x8 | x8 | %34
 x8 | x8 | x8 | x8 | x2[K:bass] x6 | x3[K:treble] x5 | x8 | x8 | x2[K:bass] x6 | x8 | x8 | x8 | %46
 x8 | x8 | x8 | x8 | x4[K:bass] x4 | x4[K:treble] x4 | x8 | x8 | x8 | x8 | x8 | x8 | x8 | x8 | x8 | %61
 x8 | x8 | x8 | x8 | x8 | x8 | x8 | x8 | x8 | x[K:bass] x6[K:treble] x | %71
 x5[K:bass] x2[K:treble] x | x[K:bass] x2[K:treble] x2[K:bass] x2[K:treble] x | x8 | x8 | x8 |] %76
V:5
 .B,.[G,D].[B,G][K:bass]D- D/ z/ .A,/.G,/ .F,.E, | D-[D,D]A,-[D,A,] z[K:treble] B/A/ B[K:bass].G, | %2
 .[G,,G,].B,/.A,/ .G,.[F,D] .[E,D][K:treble].G/.F/ .E[K:bass].[E,D] | %3
 .[F,C].A,/.G,/ .F,.[E,C] .[D,B,][K:treble].F/.E/ .D[K:bass].[D,C] | %4
 .[E,B,].G,/.F,/ .E,.[E,B,] .[C,A,].E/.D/ .C.[C,B,] | %5
 .[D,A,].F,/.E,/ .D,.C, B,,/[K:treble]a/[G,,G,]/g/ D,/g/[K:bass]D,,/f/ | G,,2 .B,,.G,, D,2 z2 | %7
 F,2 .F,.D, G,2 z .G, | .[G,,G,].B,/.A,/ .G,.[F,D] .[E,C][K:treble].G/.F/ .E[K:bass].[E,D] | %9
 .[F,C].A,/.G,/ .F,.[E,C] .[D,B,][K:treble].F/.E/ .D[K:bass].[D,C] | %10
 .[E,B,].G,/.F,/ .E,.[E,B,] .[C,A,].E/.D/ .C.[C,B,] | %11
 .[D,A,].F,/.E,/ .D,.C, B,,/[K:treble]a/[G,,G,]/g/ D,/g/[K:bass]D,,/f/ | G,,2 B,,G,, D,2 z .E, | %13
 F,2 .D.D, .G,2 z .G, | B,,2 G,,2 C,2 z .C, | B,,2 G,,2 C,2 z .C, | E,,2 z .A,, G,,2 z .A,, | %17
 B,,2 .G,,.B,, .C,.E,/.C,/ .G,.G,, | z G.E,.C, .G,.D/.C/ .B,.A, | %19
 .G,/.A,/.B,/[K:treble].C/ .[B,D].[G,B,] [CG]2 z[K:bass] .C, | ^C,2 A,,2 D,2 z .D, | %21
 ^C,2 A,,2 D,2 B,,2 | F,,2 z .B,, A,,2 z .B,, | ^C,2 .A,,.C, .D,.F,.G,.[A,,A,] | %24
 .[D,F,].A,.F,.D, z[K:treble] E/D/ .[A,^C].[B,D] | %25
 .^C[K:bass]A,,^C,.[A,,E,] z[K:treble] F/E/ F[K:bass].D,, | %26
 .[D,A,][K:treble].F/.E/ .D.[^CA] [B,G]2[K:bass] .B,,.B, | %27
 .^C.E/.D/[K:treble] .C.[B,G] [A,F]2[K:bass] .A,,.A, | %28
 .B,.D/.^C/ .B,[K:treble].[A,F] [G,E]2[K:bass] .G,,.G, | %29
 A,,/A,/.^C,/.B,,/ .A,,.G, F,/[K:treble]e/[K:bass].[D,A,] .[A,E]A,,/[K:treble]^c/ | %30
 [D,A,]2 z .[D,,D,] [E,,E,]2 [F,,F,]2 | [G,,G,]2 .[A,,A,].[B,,B,] E,2[K:treble] B[K:bass].E,, | %32
 E,2 z2 [E,,E,]2 z2 | [A,,A,]2 z2 [A,,A,]2 z2 | [D,,D,]2 z2 [D,,D,]2 z2 | %35
 [^D,,^D,]2 z2 [D,,D,]2 z2 | [E,,E,]2 z .[G,,G,] [A,,A,]2 [B,,B,]2 | z4 z2 B,2- | B,4 z4 | %39
 E,,2 z .C, z[K:treble] d/c/ E,/c/[K:bass]E,,/B/ | %40
 A,,2 z .F, z[K:treble] g/f/ A,/f/[K:bass]A,,/e/ | %41
 D,2 z .B,, z[K:treble] c/B/ D,/B/[K:bass]D,,/A/ | G,,2 .B,,,2 [D,,D,]2 z .E,, | %43
 [F,,F,]2 .[F,,F,].D, [G,,G,]2 z .[G,,G,] | [C,C]2 [B,,B,]2 .A,,.B,,.C,.A,, | %45
 [B,,B,]2 [A,,A,]2 .G,,.A,,.B,,.G,, | [A,,A,]2 [G,,G,]2 .F,,.G,,.A,,.F,, | %47
 .G,,[K:treble].G.B,.G .D,.F.D.F | .G,.G.B,.G .D,.F .DF/A/ | G,,2 B,,2 C,2 A,,2 | %50
 B,,2 C,2 F,,2 z .F, | .G,.B,, .C,2 .[G,,G,].B,/.G,/ .[D,F,].A,/.F,/ | %52
 .G,.B,/.G,/ .[D,F,].A,/.F,/ [G,,G,]2 z2 | G,,2 z2 G,,2 z2 | ^G,2 E,2 A,2 z .A, | %55
 ^G,2 E,2 .[A,,A,].C/.A,/ .[E,G,].B,/.G,/ | .A,.C/.A,/ .[E,^G,].B,/.G,/ [A,,A,]2 z2 | %57
 A,,2 z2 F,2 D,2 | G,2 z .G, F,2 D,2 | .[G,B,D]2 z2 z4[K:bass] | DD[K:treble]DD DDDD | %61
 .[A,C].[A,C].[A,C].[A,C] .[A,C].[A,C].[A,C].[A,C] | EEEE EEEE | .B,.B,.B,.B, .B,.B,.B,.B, | %64
 .D2 z2 D,4- | D,4 D,4- | D,2 z D,/A,/ G,,2 B,,2 | C,2 A,,2 B,,2 C,2 | F,,2 z .F,, .G,,.B,,.C,.D, | %69
 z D.B,,.G,, .D,.A,/.G,/ .F,.E, | .[F,D]2 .[F,A,]2 G,2 z2 | z .B,/.A,/ .G,.F, .[E,G,]2 z .[E,G,C] | %72
 .F,2 z .[E,C] .[D,F,]2 z .D, | .E,.G,/.F,/ .E,.D, .C,.E/.D/ .C.C, | %74
 D,.F,/.E,/ .D,C, z/[K:treble] .cB/ z/ B/[K:bass]D,, | [G,,,G,,]2 z2 z4 |] %76
V:6
 z2 z[K:bass] .G, D,4 | .F,2 .F,2 G,2[K:treble] z2[K:bass] | x5[K:treble] x2[K:bass] x | %3
 x5[K:treble] x2[K:bass] x | x8 | x9/2[K:treble] x5/2[K:bass] x | x8 | x8 | %8
 x5[K:treble] x2[K:bass] x | x5[K:treble] x2[K:bass] x | x8 | x9/2[K:treble] x5/2[K:bass] x | x8 | %13
 x8 | x8 | x8 | x8 | x8 | C,2 z2 z4 | x3/2[K:treble] x11/2[K:bass] x | x8 | x8 | x8 | x8 | %24
 z4 [A,,A,]2[K:treble] z2 | z[K:bass] .E,3 D,2[K:treble] z2[K:bass] | x[K:treble] x5[K:bass] x2 | %27
 x2[K:treble] x4[K:bass] x2 | x3[K:treble] x3[K:bass] x2 | %29
 x9/2[K:treble] x/[K:bass] x5/2[K:treble] x/ | x8 | x6[K:treble] x[K:bass] x | x8 | x8 | x8 | x8 | %36
 x8 | [C,C]2 B,,2 z4 | [G,,G,]2 z .A,, z2 F,2 | z4 D,2[K:treble] z2[K:bass] | %40
 z4 G,2[K:treble] z2[K:bass] | z4 C,2[K:treble] z2[K:bass] | x8 | x8 | x8 | x8 | x8 | %47
 x[K:treble] x7 | x8 | x8 | x8 | x8 | x8 | x8 | x8 | x8 | x8 | x8 | x8 | %59
 G-[G,B,G].[G,B,].[G,B,] .[G,B,][K:bass].[G,B,].[G,B,].[G,B,] | x2[K:treble] x6 | x8 | x8 | x8 | %64
 x8 | x8 | x8 | x8 | x8 | G,,2 z2 z4 | x8 | x8 | x8 | x8 | z4 B,,[K:treble]G,, .D,2[K:bass] | x8 |] %76
V:7
 x3[K:bass] x5 | x5[K:treble] x2[K:bass] x | x5[K:treble] x2[K:bass] x | %3
 x5[K:treble] x2[K:bass] x | x8 | x9/2[K:treble] x5/2[K:bass] x | x8 | x8 | %8
 x5[K:treble] x2[K:bass] x | x5[K:treble] x2[K:bass] x | x8 | x9/2[K:treble] x5/2[K:bass] x | x8 | %13
 x8 | x8 | x8 | x8 | x8 | x8 | x3/2[K:treble] x11/2[K:bass] x | x8 | x8 | x8 | x8 | %24
 x5[K:treble] x3 | x[K:bass] x4[K:treble] x2[K:bass] x | x[K:treble] x5[K:bass] x2 | %27
 x2[K:treble] x4[K:bass] x2 | x3[K:treble] x3[K:bass] x2 | %29
 x9/2[K:treble] x/[K:bass] x5/2[K:treble] x/ | x8 | x6[K:treble] x[K:bass] x | x8 | x8 | x8 | x8 | %36
 x8 | z4 [A,,A,]4 | z4 B,,4 | x5[K:treble] x2[K:bass] x | x5[K:treble] x2[K:bass] x | %41
 x5[K:treble] x2[K:bass] x | x8 | x8 | x8 | x8 | x8 | x[K:treble] x7 | x8 | x8 | x8 | x8 | x8 | %53
 x8 | x8 | x8 | x8 | x8 | x8 | x5[K:bass] x3 | x2[K:treble] x6 | x8 | x8 | x8 | x8 | x8 | x8 | x8 | %68
 x8 | x8 | x8 | x8 | x8 | x8 | x9/2[K:treble] x5/2[K:bass] x | x8 |] %76

